X: 3094
T: Bear Dance, The
R: polka
M: 2/4
K: Bminor
|:fB B2|fB B2|dd cd|~e2 de|
fd ec|dB c2|Bf e/d/c/d/|B2 B2:|
|:B/c/d B/c/d|cA A2|B/c/d B/c/d|~e2 de|
fd ec|dB c2|Bf e/d/c/d/|B2 B2:|

